icons/Grafana-Dark.svg

<svg xmlns="http://www.w3.org/2000/svg" width="256" height="256" fill="none" viewBox="0 0 256 256"><rect width="256" height="256" fill="#242938" rx="60"/><path fill="url(#paint0_linear_97_938)" d="M220.724 116.455C220.37 113.258 220.014 109.35 218.593 105.087C217.527 100.824 215.751 96.206 213.265 91.2327C210.778 86.2593 207.581 81.2859 203.673 76.3125C202.252 74.5364 200.476 72.4049 198.345 70.6288C201.186 59.2611 194.793 49.6696 194.793 49.6696C184.135 48.9591 177.03 52.8667 174.543 54.9982C174.188 54.9982 173.833 54.643 173.122 54.2877C171.347 53.5773 169.57 52.8667 167.439 52.1563C165.308 51.4458 163.531 51.0906 161.4 50.3801C159.268 50.0248 157.136 49.6696 155.361 49.3143C155.005 49.3143 154.65 49.3143 154.295 49.3143C149.676 34.3943 136.177 28 136.177 28C121.258 37.5915 118.416 50.7354 118.416 50.7354C118.416 50.7354 118.416 51.0906 118.416 51.4458C117.705 51.801 116.639 51.801 115.929 52.1563C114.863 52.5115 113.797 52.8667 112.376 53.222C111.311 53.5773 110.245 53.9325 108.824 54.643C106.693 55.7087 104.206 56.7744 102.075 57.8401C99.9431 58.9058 97.8117 60.3268 95.6803 61.7478C95.325 61.7478 95.325 61.3925 95.325 61.3925C74.3659 53.5773 55.8934 63.1687 55.8934 63.1687C54.1172 85.1936 64.0639 99.4031 66.1954 101.89C65.8401 103.311 65.1297 104.732 64.7744 106.153C63.3535 111.126 61.9325 116.455 61.222 121.784C61.222 122.494 60.8667 123.204 60.8667 123.915C41.6838 133.506 36 153.044 36 153.044C51.9858 171.517 70.8135 172.582 70.8135 172.582C73.3002 176.846 75.7869 180.753 78.984 184.66C80.4049 186.081 81.8259 187.858 82.8917 189.279C77.2078 205.975 83.6021 219.83 83.6021 219.83C101.364 220.54 113.087 212.014 115.574 209.883C117.35 210.593 119.126 210.948 120.902 211.659C126.231 213.08 131.915 213.791 137.598 214.145C139.019 214.145 140.441 214.145 141.862 214.145H142.572H142.927H143.637H144.348C152.874 226.223 167.439 228 167.439 228C178.096 216.987 178.451 205.975 178.451 203.488C178.451 203.133 178.451 203.133 178.451 203.133V202.778C180.582 201.357 182.713 199.581 184.846 197.805C189.108 193.897 192.66 189.634 195.858 185.016C196.213 184.66 196.568 184.306 196.568 183.595C208.646 184.306 216.817 176.135 216.817 176.135C214.685 163.701 207.58 157.662 206.159 156.597C206.159 156.597 206.159 156.597 205.805 156.597C205.805 155.886 205.805 155.175 205.805 154.465C205.805 153.044 205.805 151.623 205.805 150.558V148.782V148.426V148.071C205.805 147.715 205.805 147.715 205.805 147.715V147.005V145.94C205.805 145.584 205.805 145.229 205.805 144.874C205.805 144.519 205.805 144.163 205.805 143.808V142.742V141.676C205.449 140.256 205.449 138.835 205.094 137.769C203.673 132.441 201.897 127.467 199.055 122.849C196.213 118.231 193.016 114.323 189.108 110.771C185.2 107.218 180.938 104.732 176.32 102.6C171.701 100.469 167.083 99.4031 162.11 98.6927C159.623 98.3374 157.492 98.3374 155.005 98.3374H154.295H153.94H153.584H153.229H152.519C152.163 98.3374 151.808 98.3374 151.453 98.3374C150.387 98.3374 148.966 98.6927 147.901 98.6927C143.283 99.4031 138.664 101.179 134.757 103.666C130.849 106.153 127.297 108.995 124.455 112.192C121.613 115.389 119.481 119.297 118.06 123.204C116.639 127.112 115.929 131.019 115.574 134.927C115.574 135.993 115.574 136.703 115.574 137.769C115.574 138.124 115.574 138.124 115.574 138.48V139.19C115.574 139.545 115.574 140.256 115.574 140.611C115.929 142.387 116.284 144.519 116.639 146.295C117.705 149.847 119.481 153.044 121.258 155.886C123.389 158.728 125.876 160.86 128.363 162.635C130.849 164.412 133.691 165.833 136.533 166.543C139.375 167.254 141.862 167.609 144.703 167.609C145.058 167.609 145.414 167.609 145.769 167.609H146.124H146.48C146.835 167.609 147.19 167.609 147.19 167.609C147.19 167.609 147.19 167.609 147.545 167.609H147.901H148.256C148.611 167.609 148.966 167.609 149.322 167.609C149.676 167.609 150.032 167.609 150.387 167.254C151.097 167.254 151.453 166.899 152.163 166.899C153.229 166.543 154.295 166.188 155.361 165.478C156.426 165.122 157.136 164.412 158.202 163.701C158.557 163.701 158.558 163.347 158.913 162.991C159.979 162.281 159.979 160.86 159.268 160.149C158.558 159.439 157.492 159.083 156.782 159.794C156.426 159.794 156.426 160.149 156.071 160.149C155.361 160.504 154.65 160.86 153.584 161.214C152.874 161.57 151.808 161.57 151.097 161.925C150.742 161.925 150.032 161.925 149.676 161.925C149.322 161.925 149.322 161.925 148.966 161.925C148.611 161.925 148.611 161.925 148.256 161.925C147.901 161.925 147.901 161.925 147.545 161.925C147.19 161.925 146.835 161.925 146.835 161.925H146.48H146.124C145.769 161.925 145.769 161.925 145.414 161.925C143.283 161.57 141.506 161.214 139.375 160.149C137.243 159.439 135.467 158.018 133.69 156.597C131.915 155.175 130.494 153.044 129.428 151.268C128.363 149.492 127.297 147.005 126.941 144.519C126.586 143.453 126.586 142.032 126.586 140.966C126.586 140.611 126.586 140.256 126.586 139.901V139.545V139.19C126.586 138.48 126.586 137.769 126.941 137.058C128.007 131.73 130.494 126.757 134.757 122.494C135.823 121.428 136.888 120.717 137.954 119.651C139.019 118.941 140.441 118.231 141.506 117.52C142.927 116.81 144.348 116.455 145.414 116.099C146.835 115.744 148.256 115.389 149.676 115.389C150.387 115.389 151.097 115.389 151.808 115.389C152.163 115.389 152.163 115.389 152.163 115.389H152.874H153.229H153.94C155.361 115.389 157.136 115.744 158.557 116.099C161.755 116.81 164.596 117.876 167.439 119.651C173.122 122.849 177.74 127.823 180.938 133.506C182.359 136.348 183.425 139.545 184.135 142.742C184.135 143.453 184.49 144.519 184.49 145.229V145.94V146.65C184.49 147.005 184.49 147.005 184.49 147.361C184.49 147.715 184.49 147.715 184.49 148.071V148.782V149.492C184.49 149.847 184.49 150.557 184.49 150.913C184.49 151.979 184.49 152.689 184.135 153.755C184.135 154.465 183.78 155.531 183.78 156.241C183.78 156.952 183.424 158.018 183.069 158.728C182.713 160.504 182.003 162.281 181.293 163.701C179.872 166.899 178.096 170.096 175.964 173.293C171.701 178.977 166.018 183.95 159.268 186.792C156.071 188.213 152.519 189.279 148.966 189.989C147.19 190.345 145.414 190.345 143.637 190.699H143.283H142.927H142.216H141.506H141.151C141.506 190.699 141.151 190.699 141.151 190.699C140.085 190.699 139.375 190.699 138.309 190.699C134.402 190.345 130.494 189.634 126.941 188.568C123.389 187.503 119.481 186.081 116.284 184.306C109.535 180.753 103.495 175.78 98.5221 169.74C96.0355 166.899 93.904 163.701 92.4831 160.149C90.7068 156.597 89.286 153.044 88.2202 149.492C87.1545 145.94 86.4441 142.032 86.4441 138.48V137.769V137.414V136.703V134.572V134.216V133.506V133.151C86.4441 132.796 86.4441 132.085 86.4441 131.73C86.4441 129.954 86.7993 127.823 86.7993 126.046C87.1545 124.27 87.5097 122.138 87.865 120.363C88.2202 118.586 88.5755 116.455 89.2859 114.678C90.3516 111.126 91.7726 107.574 93.1936 104.021C96.3907 97.2717 100.298 91.2327 105.272 86.6145C106.337 85.5488 107.758 84.1279 109.179 83.0621C110.6 81.9964 112.021 80.9307 113.442 80.2202C114.863 79.1545 116.284 78.444 117.705 77.7336C118.416 77.3783 119.126 77.023 119.837 76.6678C120.192 76.6678 120.547 76.3125 120.902 76.3125C121.257 76.3125 121.613 75.9573 121.968 75.9573C123.389 75.2469 125.165 74.8916 126.586 74.1812C126.941 74.1812 127.297 73.8259 127.652 73.8259C128.007 73.8259 128.363 73.4706 128.717 73.4706C129.428 73.1154 130.494 73.1154 131.204 72.7602C131.559 72.7602 131.915 72.4049 132.625 72.4049C132.98 72.4049 133.336 72.4049 134.046 72.0497C134.402 72.0497 134.757 72.0497 135.467 71.6945H136.177H136.888C137.243 71.6945 137.598 71.6945 138.309 71.3392C138.664 71.3392 139.375 71.3392 139.73 70.984C140.085 70.984 140.796 70.984 141.151 70.984C141.506 70.984 141.862 70.984 142.216 70.984H142.927H143.283H143.637C143.993 70.984 144.703 70.984 145.058 70.984H145.769C145.769 70.984 146.124 70.984 145.769 70.984H146.124C146.48 70.984 146.835 70.984 147.19 70.984C148.966 70.984 150.387 70.984 152.163 70.984C155.361 70.984 158.557 71.3392 161.755 72.0497C167.794 73.1154 173.478 75.2469 178.807 77.7336C184.135 80.2202 188.753 83.4173 192.66 86.9697C193.016 87.325 193.016 87.325 193.371 87.6803C193.726 88.0355 193.726 88.0355 194.081 88.3907C194.437 88.746 195.147 89.1012 195.502 89.8116C195.858 90.5221 196.568 90.5221 196.924 91.2327C197.279 91.9431 197.989 92.2984 198.345 92.6536C200.12 94.4298 201.541 96.206 202.963 98.3374C205.805 101.89 208.292 105.797 210.067 109.35C210.067 109.705 210.423 109.705 210.423 110.06C210.423 110.416 210.778 110.416 210.778 110.771C211.133 111.126 211.133 111.481 211.488 112.192C211.844 112.547 211.844 112.902 212.198 113.613C212.554 113.968 212.554 114.323 212.909 115.034C213.62 116.81 214.331 118.231 214.685 119.651C215.396 122.138 216.106 124.27 216.462 126.046C216.817 126.757 217.527 127.467 218.238 127.112C218.948 127.112 219.659 126.402 219.659 125.69C221.08 121.428 221.08 118.941 220.724 116.455Z"/><defs><linearGradient id="paint0_linear_97_938" x1="129.039" x2="129.039" y1="282.048" y2="50.683" gradientUnits="userSpaceOnUse"><stop stop-color="#FFF100"/><stop offset="1" stop-color="#F05A28"/></linearGradient></defs></svg>

<svg xmlns="http://www.w3.org/2000/svg" width="256" height="256" fill="none" viewBox="0 0 256 256"><rect width="256" height="256" fill="#242938" rx="60"/><path fill="url(#a)" d="M220.72 116.46c-.35-3.2-.7-7.11-2.13-11.37a69 69 0 0 0-5.33-13.86 88 88 0 0 0-9.59-14.92 39 39 0 0 0-5.32-5.68c2.84-11.37-3.56-20.96-3.56-20.96-10.65-.71-17.76 3.2-20.25 5.33-.35 0-.7-.36-1.42-.71a98 98 0 0 0-5.68-2.13c-2.13-.71-3.9-1.07-6.04-1.78-2.13-.36-4.26-.71-6.04-1.07h-1.07C149.68 34.4 136.19 28 136.19 28c-14.92 9.6-17.76 22.74-17.76 22.74v.7c-.72.36-1.78.36-2.5.72-1.06.35-2.12.7-3.54 1.06-1.07.36-2.13.71-3.56 1.42-2.13 1.07-4.61 2.13-6.74 3.2-2.14 1.07-4.27 2.49-6.4 3.9-.36 0-.36-.35-.36-.35-20.95-7.81-39.43 1.78-39.43 1.78-1.77 22.02 8.17 36.23 10.3 38.72-.35 1.42-1.06 2.84-1.42 4.26-1.42 4.98-2.84 10.3-3.55 15.63 0 .71-.35 1.42-.35 2.14C41.68 133.5 36 153.04 36 153.04c15.99 18.48 34.81 19.54 34.81 19.54a90 90 0 0 0 8.17 12.08 45 45 0 0 1 3.91 4.62c-5.68 16.7.71 30.55.71 30.55 17.76.71 29.49-7.82 31.97-9.95 1.78.71 3.56 1.07 5.33 1.78a86 86 0 0 0 16.7 2.49h6.75c8.52 12.07 23.09 13.85 23.09 13.85 10.66-11.01 11.01-22.03 11.01-24.51v-.71c2.13-1.42 4.26-3.2 6.4-4.97a75 75 0 0 0 11-12.8c.36-.35.72-.7.72-1.41 12.08.7 20.25-7.47 20.25-7.47-2.13-12.43-9.24-18.47-10.66-19.53h-.35v-14.92c-.36-1.42-.36-2.84-.72-3.91-1.42-5.33-3.2-10.3-6.03-14.92a55 55 0 0 0-9.95-12.08c-3.91-3.55-8.17-6.04-12.79-8.17s-9.24-3.2-14.21-3.9c-2.49-.36-4.62-.36-7.1-.36h-3.56c-1.06 0-2.48.35-3.55.35a35 35 0 0 0-13.14 4.98 49 49 0 0 0-10.3 8.52 34 34 0 0 0-6.4 11.01 46 46 0 0 0-2.49 11.73v5.68c.36 1.78.71 3.9 1.07 5.68a40 40 0 0 0 4.62 9.6 32 32 0 0 0 7.1 6.75 25 25 0 0 0 8.17 3.9c2.84.71 5.33 1.07 8.17 1.07h4.62c.36 0 .71 0 1.07-.36.7 0 1.06-.35 1.77-.35 1.07-.36 2.13-.71 3.2-1.42 1.07-.36 1.78-1.07 2.84-1.78.36 0 .36-.35.71-.7a1.88 1.88 0 0 0 .36-2.85c-.71-.71-1.78-1.07-2.49-.36-.35 0-.35.36-.7.36-.72.35-1.43.71-2.5 1.06-.7.36-1.77.36-2.48.72h-5.68a20 20 0 0 1-6.04-1.78c-2.14-.71-3.91-2.13-5.69-3.55s-3.2-3.56-4.26-5.33a19 19 0 0 1-2.49-6.75c-.35-1.07-.35-2.49-.35-3.55v-1.78c0-.71 0-1.42.35-2.13a28 28 0 0 1 7.82-14.57c1.06-1.06 2.13-1.77 3.2-2.84 1.06-.7 2.48-1.42 3.55-2.13 1.42-.71 2.84-1.06 3.9-1.42 1.43-.36 2.85-.71 4.27-.71h4.26c1.42 0 3.2.35 4.62.7 3.2.72 6.04 1.79 8.88 3.56 5.68 3.2 10.3 8.17 13.5 13.86a41 41 0 0 1 3.2 9.23c0 .71.35 1.78.35 2.49v5.68c0 1.07 0 1.78-.36 2.84 0 .72-.35 1.78-.35 2.5 0 .7-.36 1.77-.71 2.48a21 21 0 0 1-1.78 4.97 65 65 0 0 1-5.33 9.6c-4.26 5.68-9.94 10.65-16.7 13.5a50 50 0 0 1-10.3 3.19c-1.77.35-3.55.35-5.32.7h-2.49c.36 0 0 0 0 0h-2.84a58 58 0 0 1-11.37-2.12 56 56 0 0 1-10.66-4.26 58 58 0 0 1-17.76-14.57 34 34 0 0 1-6.04-9.6 67 67 0 0 1-4.26-10.65 40 40 0 0 1-1.78-11.01v-6.75c0-1.78.36-3.9.36-5.68.35-1.78.71-3.91 1.06-5.69.36-1.77.72-3.9 1.43-5.68 1.06-3.55 2.48-7.1 3.9-10.66 3.2-6.75 7.1-12.79 12.08-17.4a39 39 0 0 1 3.9-3.56 30 30 0 0 1 4.27-2.84 27 27 0 0 1 4.27-2.49l2.13-1.06c.35 0 .7-.36 1.06-.36s.71-.35 1.07-.35c1.42-.71 3.2-1.07 4.62-1.78.35 0 .7-.35 1.06-.35s.71-.36 1.07-.36c.7-.35 1.77-.35 2.48-.71.36 0 .72-.36 1.43-.36.35 0 .7 0 1.42-.35.35 0 .7 0 1.42-.36h1.42c.35 0 .7 0 1.42-.35.35 0 1.06 0 1.42-.36h6.03s.36 0 0 0h6.4q4.8 0 9.6 1.07c6.03 1.07 11.72 3.2 17.05 5.68a55 55 0 0 1 13.85 9.24l.71.71.71.71c.36.36 1.07.71 1.42 1.42.36.71 1.07.71 1.42 1.42.36.71 1.07 1.07 1.43 1.42a36 36 0 0 1 4.61 5.69 64 64 0 0 1 7.1 11.01c0 .36.36.36.36.71 0 .36.36.36.36.71.35.36.35.71.7 1.42.36.36.36.71.72 1.42.35.36.35.71.7 1.42.72 1.78 1.43 3.2 1.78 4.62.72 2.49 1.43 4.62 1.78 6.4.36.7 1.07 1.42 1.78 1.06.7 0 1.42-.7 1.42-1.42 1.42-4.26 1.42-6.75 1.06-9.23"/><defs><linearGradient id="a" x1="129.04" x2="129.04" y1="282.05" y2="50.68" gradientUnits="userSpaceOnUse"><stop stop-color="#FFF100"/><stop offset="1" stop-color="#F05A28"/></linearGradient></defs></svg>
